%
O0001(VEOTEST_R)
(MASTERCAM    - 2026)
(MCAM FILE    - VEOTESTC)
(POST         - IKE_TSUGAMI_BS_FANUC)
(DATE         - 2026/2/11)
(TIME         - 5:25PM)
(T1515  - OD ROUGH RIGHT - 80 DEG.    - CORNER RAD .8MM)
(T1212  - OD GROOVE RIGHT - MEDIUM)
(T2424  - SPOT TOOL  12. DIA.      - CORNER RAD 6.MM)
(T2323  - DRILL 9. DIA.            - CORNER RAD 4.MM)
(T0505  - OD CUTOFF LEFT           - CORNER RAD .4MM)


G00 G18 G21 G40 G80
G28 U0. V0.
G28 W0.

(CHAM)
M26
(T1515  - OD ROUGH RIGHT - 80 DEG.    - CORNER RAD .8MM)
G00 T1515
G18 G54
M08
G97 S3000 M03 P1
Z1.42
X13.549
G99
G71 U1. R.2
G71 P100 Q102 U.4 W.2 F.25
N100 G00 X11.1 S3000 W0.
G01 Z-.471 F.2
G03 X11.5 Z-1. R.8
G01 Z-6.795
X11.53 Z-8.
N102 X13.549
G00 Z1.42
X13.649
G70 P100 Q102
G00 X13.649 Z1.42
M09
G28 U0. V0.
G28 W0.
T1500
M01

(T1212  - OD GROOVE RIGHT - MEDIUM)
G00 T1212
G18 G54
M08
G97 S3000 M03 P1
Z-3.15
X15.5
G99
G75 R0.
G99 G75 X10.28 Z-4.85 P2610 Q750 F.05
G00 X15.5
M09
G28 U0. V0.
G28 W0.
T1200
M01

(T2424  - SPOT TOOL  12. DIA.      - CORNER RAD 6.MM)
G00 T2424
G18 G54
M08
G97 S3000 M03 P1
Z1.
X0.
Z0.
G99
G85 Z-4.1 R0. F.05
G80
Z1.
M09
G28 U0. V0.
G28 W0.
T2400
M01

(T2323  - DRILL 9. DIA.            - CORNER RAD 4.MM)
G00 T2323
G18 G54
M08
G97 S3000 M03 P1
Z1.
X0.
Z0.
G99
G83 Z-9. R0. Q500 F.05
G80
Z1.
M09
G28 U0. V0.
G28 W0.
T2300
M01

M126
M26
(T0505  - OD CUTOFF LEFT           - CORNER RAD .4MM)
G00 T0505
G18 G54
M56
M08
G97 S3000 M03 P1
Z-6.2
X16.7
G01 G99 X-1.36 F.05
M09
M05 P1
M57
G00 G28 U0. V0.
G28 W0.
T0500

M30
%
